img/icons/BusinessOwner.svg

<svg xmlns="http://www.w3.org/2000/svg" width="43" height="62" viewBox="0 0 43 62"><path d="M27.697 40.378h8.461a1.4 1.4 0 0 1 1.404 1.395 1.4 1.4 0 0 1-1.404 1.395h-8.461a1.4 1.4 0 0 1-1.404-1.395 1.4 1.4 0 0 1 1.404-1.395zm14.428 19.977a1.4 1.4 0 0 1-1.404 1.394H23.169a1.4 1.4 0 0 1-1.404-1.394V47.239c0-.771.629-1.394 1.404-1.394h17.552c.775 0 1.404.623 1.404 1.394v13.116zm-2.808-11.721H24.573v10.325h14.744V48.634zM16.643 32.38a1.4 1.4 0 0 0-1.404 1.396l.001 9.703c0 .771.628 1.395 1.404 1.395a1.4 1.4 0 0 0 1.404-1.395v-9.703a1.4 1.4 0 0 0-1.405-1.396zM6.448 9.708C6.684 3.446 11.879.415 16.606.251a.818.818 0 0 1 .099 0c1.933.067 3.945.614 5.663 1.665.093.045.179.099.258.163 2.354 1.537 4.102 4.057 4.236 7.629.195 5.176-1.747 9.357-5.327 11.47a9.595 9.595 0 0 1-9.759.001c-3.581-2.114-5.522-6.295-5.328-11.471zm6.762 9.072a6.78 6.78 0 0 0 6.891-.001c2.669-1.576 4.11-4.843 3.955-8.966-.068-1.794-.694-3.213-1.649-4.279-1.419 2.902-4.35 4.839-8.074 5.211a1.401 1.401 0 0 1-1.537-1.248 1.398 1.398 0 0 1 1.256-1.528c2.32-.232 4.989-1.444 6.033-4.123a9.093 9.093 0 0 0-3.429-.805c-3.571.143-7.232 2.287-7.401 6.772-.155 4.123 1.286 7.391 3.955 8.967zm13.14 16.151l.084.536a1.396 1.396 0 0 0 1.628 1.118 1.393 1.393 0 0 0 1.12-1.627l-.102-.569c-1.161-6.232-7.083-9.053-12.435-9.053h-.001c-5.352 0-11.273 2.821-12.434 9.053L.9 52.157a1.41 1.41 0 0 0 .301 1.155c.267.319.663.507 1.08.507l14.363.002a1.4 1.4 0 0 0 1.404-1.395c0-.77-.629-1.393-1.404-1.393H3.969l3.035-16.102c.771-4.138 4.511-6.244 8.302-6.661v.766a1.4 1.4 0 0 0 1.404 1.396 1.4 1.4 0 0 0 1.404-1.396v-.766c3.651.416 7.465 2.523 8.236 6.661z" fill="#208BCE"/></svg>

<svg version="1.1" xmlns="http://www.w3.org/2000/svg" xmlns:xlink="http://www.w3.org/1999/xlink" width="43" height="62" viewBox="0 0 43 62"><path id="BusinessOwner" d="M27.697,40.378 C27.697,40.378 36.158,40.378 36.158,40.378 C36.934,40.378 37.562,41.003 37.562,41.773 C37.562,42.543 36.934,43.168 36.158,43.168 C36.158,43.168 27.697,43.168 27.697,43.168 C26.922,43.168 26.293,42.544 26.293,41.773 C26.293,41.003 26.922,40.378 27.697,40.378 zM42.125,60.355 C42.125,61.125 41.496,61.749 40.721,61.749 C40.721,61.749 23.169,61.749 23.169,61.749 C22.394,61.749 21.765,61.125 21.765,60.355 C21.765,60.355 21.765,47.239 21.765,47.239 C21.765,46.468 22.394,45.845 23.169,45.845 C23.169,45.845 40.721,45.845 40.721,45.845 C41.496,45.845 42.125,46.468 42.125,47.239 C42.125,47.239 42.125,60.355 42.125,60.355 zM39.317,48.634 L24.573,48.634 L24.573,58.959 L39.317,58.959 L39.317,48.634 zM16.643,32.380 C15.868,32.380 15.239,33.005 15.239,33.776 C15.239,33.776 15.240,43.479 15.240,43.479 C15.240,44.250 15.868,44.874 16.644,44.874 C17.419,44.874 18.048,44.250 18.048,43.479 C18.048,43.479 18.048,33.776 18.048,33.776 C18.048,33.005 17.419,32.380 16.643,32.380 zM6.448,9.708 C6.684,3.446 11.879,0.415 16.606,0.251 C16.639,0.249 16.672,0.249 16.705,0.251 C18.638,0.318 20.650,0.865 22.368,1.916 C22.461,1.961 22.547,2.015 22.626,2.079 C24.980,3.616 26.728,6.136 26.862,9.708 C27.057,14.884 25.115,19.065 21.535,21.178 C20.030,22.067 18.343,22.511 16.655,22.511 C14.968,22.511 13.281,22.067 11.776,21.179 C8.195,19.065 6.254,14.884 6.448,9.708 zM13.210,18.780 C15.335,20.034 17.976,20.034 20.101,18.779 C22.770,17.203 24.211,13.936 24.056,9.813 C23.988,8.019 23.362,6.600 22.407,5.534 C20.988,8.436 18.057,10.373 14.333,10.745 C13.562,10.822 12.873,10.263 12.796,9.497 C12.718,8.730 13.281,8.047 14.052,7.969 C16.372,7.737 19.041,6.525 20.085,3.846 C19.018,3.353 17.832,3.088 16.656,3.041 C13.085,3.184 9.424,5.328 9.255,9.813 C9.100,13.936 10.541,17.204 13.210,18.780 zM26.350,34.931 C26.350,34.931 26.434,35.467 26.434,35.467 C26.575,36.224 27.299,36.725 28.062,36.585 C28.824,36.444 29.324,35.716 29.182,34.958 C29.182,34.958 29.080,34.389 29.080,34.389 C27.919,28.157 21.997,25.336 16.645,25.336 C16.645,25.336 16.645,25.336 16.644,25.336 C11.292,25.336 5.371,28.157 4.210,34.389 C4.210,34.389 0.900,52.157 0.900,52.157 C0.824,52.564 0.935,52.993 1.201,53.312 C1.468,53.631 1.864,53.819 2.281,53.819 C2.281,53.819 16.644,53.821 16.644,53.821 C17.419,53.821 18.048,53.197 18.048,52.426 C18.048,51.656 17.419,51.033 16.644,51.033 C16.644,51.033 3.969,51.033 3.969,51.033 C3.969,51.033 7.004,34.931 7.004,34.931 C7.775,30.793 11.515,28.687 15.306,28.270 C15.306,28.270 15.306,29.036 15.306,29.036 C15.306,29.807 15.935,30.432 16.710,30.432 C17.485,30.431 18.114,29.807 18.114,29.036 C18.114,29.036 18.114,28.270 18.114,28.270 C21.765,28.686 25.579,30.793 26.350,34.931 z" fill="#208BCE" /></svg>
